X:225
T:Miss Susan Cooper
R:reel
C:Ronnie Cooper, Shetland
D:Sean Keane: Jig It in Style
Z:id:hn-reel-225
M:C|
K:D
ABc |: dfed BedB | BAFA DAFA | ABde fa^ga | g2fg egfe |
dfed B2dB | A2FA DAFA | ABde fagf | eAce d2dc :|
|: Bcde fB~B2 | def^g a2^gf | e2ce Aece | g2fg egfe |
dfed B2dB | BAFA DAFA | ABde fagf |1 eAce d2dc :|2 eAce dABc || 
P:variations
|: dfed BcdB | BAFA DAFA | ABde fa^ga | gAfA egfe |
defd BcdB | BAFA DAFA | ABde fa^ga | gece d2dc :|
|: Bcde fBBc | def^g af^gf | e2ce Aece | gAfA egfe |
dfed BedB | BAFA DAFA | ABde fa^ga |1 gece d2dc :|2 gece dABc ||

